static/assets/images/tokens/eurc.svg

<svg width="256" height="256" viewBox="0 0 256 256" fill="none" xmlns="http://www.w3.org/2000/svg">
<path fill-rule="evenodd" clip-rule="evenodd" d="M128 0C198.693 0 256 57.3074 256 128C256 198.693 198.693 256 128 256C57.3074 256 0 198.693 0 128C0 57.3074 57.3074 0 128 0ZM157.247 37.8699C154.36 36.9478 152 38.661 152 41.6914V49.144C152 51.1759 153.532 53.4884 155.439 54.1877C186.076 65.409 208 94.857 208 129.334C208 163.81 186.076 193.257 155.439 204.479C153.347 205.246 152 207.295 152 209.523V216.976C152 220.005 154.36 221.719 157.247 220.797C195.964 208.427 224 172.154 224 129.334C224 86.5124 195.964 50.2403 157.247 37.8699ZM104 41.6914C104 38.661 101.64 36.9478 98.7538 37.8699C60.036 50.2403 32 86.5124 32 129.334C32 172.154 60.036 208.427 98.7538 220.797C101.64 221.719 104 220.005 104 216.976V209.523C104 207.491 102.469 205.178 100.561 204.479C69.9241 193.257 48 163.81 48 129.334C48 94.857 69.9241 65.409 100.561 54.1877C102.469 53.4884 104 51.1759 104 49.144V41.6914Z" fill="#477BFF"/>
<path d="M157.247 37.8699C154.36 36.9478 152 38.661 152 41.6914V49.144C152 51.1759 153.532 53.4884 155.439 54.1877C186.076 65.409 208 94.857 208 129.334C208 163.81 186.076 193.257 155.439 204.479C153.347 205.246 152 207.295 152 209.523V216.976C152 220.005 154.36 221.719 157.247 220.797C195.964 208.427 224 172.154 224 129.334C224 86.5124 195.964 50.2403 157.247 37.8699Z" fill="white"/>
<path d="M104 41.6914C104 38.661 101.64 36.9478 98.7538 37.8699C60.036 50.2403 32 86.5124 32 129.334C32 172.154 60.036 208.427 98.7538 220.797C101.64 221.719 104 220.005 104 216.976V209.523C104 207.491 102.469 205.178 100.561 204.479C69.9241 193.257 48 163.81 48 129.334C48 94.857 69.9241 65.409 100.561 54.1877C102.469 53.4884 104 51.1759 104 49.144V41.6914Z" fill="white"/>
<path d="M79.9927 136.942L75.3549 143.202C74.2578 145.373 75.8372 147.94 78.2699 147.94H93.447C98.2461 167.78 112.066 181.31 130.583 181.03C143.729 181.03 153.639 174.494 160.256 161.479C161.099 159.822 160.36 157.789 158.662 157.031L151.423 153.797C149.83 153.085 147.951 153.752 147.178 155.317C143.761 162.251 138.084 166.67 130.583 166.67C123.792 166.67 118.344 163.345 114.171 156.626C112.539 154.025 111.242 151.122 110.254 147.942H129.692C130.924 147.942 132.051 147.248 132.607 146.149L137.245 139.889C138.342 137.716 136.763 135.151 134.33 135.151H108.067C107.991 133.805 107.945 132.431 107.945 131.015C107.93 129.611 107.97 128.238 108.043 126.885H129.692C130.924 126.885 132.051 126.191 132.607 125.092L137.245 118.832C138.342 116.661 136.763 114.094 134.33 114.094H110.23C113.755 102.6 121.114 95.071 130.583 95.2198C137.797 95.2198 143.399 99.1692 146.992 105.639C147.797 107.089 149.609 107.645 151.126 106.975L158.403 103.762C160.143 102.993 160.884 100.888 159.962 99.223C153.247 87.0934 143.453 81 130.583 81C118.839 81 109.431 85.6682 102.287 94.9366C98.1117 100.395 95.2039 106.799 93.4793 114.094H82.9094C81.6778 114.094 80.5502 114.787 79.9945 115.886L75.3567 122.146C74.2596 124.319 75.839 126.885 78.2717 126.885H91.7332C91.6686 128.244 91.6059 129.606 91.6059 131.015C91.588 132.412 91.622 133.788 91.6812 135.151H82.9112C81.6796 135.151 80.5484 135.843 79.9927 136.942Z" fill="white"/>
</svg>

<svg xmlns="http://www.w3.org/2000/svg" fill="none" viewBox="0 0 256 256"><path fill="#477BFF" fill-rule="evenodd" d="M128 0c70.693 0 128 57.307 128 128s-57.307 128-128 128S0 198.693 0 128 57.307 0 128 0m29.247 37.87c-2.887-.922-5.247.791-5.247 3.821v7.453c0 2.032 1.532 4.344 3.439 5.044C186.076 65.409 208 94.857 208 129.334c0 34.476-21.924 63.923-52.561 75.145-2.092.767-3.439 2.816-3.439 5.044v7.453c0 3.029 2.36 4.743 5.247 3.821C195.964 208.427 224 172.154 224 129.334c0-42.822-28.036-79.094-66.753-91.464M104 41.69c0-3.03-2.36-4.743-5.246-3.821C60.036 50.24 32 86.512 32 129.334c0 42.82 28.036 79.093 66.754 91.463 2.886.922 5.246-.792 5.246-3.821v-7.453c0-2.032-1.531-4.345-3.439-5.044C69.924 193.257 48 163.81 48 129.334s21.924-63.925 52.561-75.146c1.908-.7 3.439-3.012 3.439-5.044z" clip-rule="evenodd"/><path fill="#fff" d="M157.247 37.87c-2.887-.922-5.247.791-5.247 3.821v7.453c0 2.032 1.532 4.344 3.439 5.044C186.076 65.409 208 94.857 208 129.334c0 34.476-21.924 63.923-52.561 75.145-2.092.767-3.439 2.816-3.439 5.044v7.453c0 3.029 2.36 4.743 5.247 3.821C195.964 208.427 224 172.154 224 129.334c0-42.822-28.036-79.094-66.753-91.464M104 41.691c0-3.03-2.36-4.743-5.246-3.821C60.036 50.24 32 86.512 32 129.334c0 42.82 28.036 79.093 66.754 91.463 2.886.922 5.246-.792 5.246-3.821v-7.453c0-2.032-1.531-4.345-3.439-5.044C69.924 193.257 48 163.81 48 129.334s21.924-63.925 52.561-75.146c1.908-.7 3.439-3.012 3.439-5.044z"/><path fill="#fff" d="m79.993 136.942-4.638 6.26c-1.097 2.171.482 4.738 2.915 4.738h15.177c4.8 19.84 18.619 33.37 37.136 33.09 13.146 0 23.056-6.536 29.673-19.551.843-1.657.104-3.69-1.594-4.448l-7.239-3.234a3.254 3.254 0 0 0-4.245 1.52c-3.417 6.934-9.094 11.353-16.595 11.353-6.791 0-12.239-3.325-16.412-10.044-1.632-2.601-2.929-5.504-3.917-8.684h19.438a3.27 3.27 0 0 0 2.915-1.793l4.638-6.26c1.097-2.173-.482-4.738-2.915-4.738h-26.263a73 73 0 0 1-.122-4.136 64 64 0 0 1 .098-4.13h21.649a3.27 3.27 0 0 0 2.915-1.793l4.638-6.26c1.097-2.171-.482-4.738-2.915-4.738h-24.1c3.525-11.494 10.884-19.023 20.353-18.874 7.214 0 12.816 3.95 16.409 10.419.805 1.45 2.617 2.006 4.134 1.336l7.277-3.213c1.74-.769 2.481-2.874 1.559-4.539C153.247 87.093 143.453 81 130.583 81c-11.744 0-21.152 4.668-28.296 13.937-4.175 5.458-7.083 11.862-8.808 19.157H82.91a3.27 3.27 0 0 0-2.915 1.792l-4.637 6.26c-1.097 2.173.482 4.739 2.915 4.739h13.461c-.064 1.359-.127 2.721-.127 4.13a73 73 0 0 0 .075 4.136h-8.77a3.27 3.27 0 0 0-2.918 1.791"/></svg>
